dhis-2/dhis-support/dhis-support-system/src/main/resources/SVGs/iud_negative.svg

<svg width="48" height="48" viewBox="0 0 48 48" fill="none" xmlns="http://www.w3.org/2000/svg">
<path fill-rule="evenodd" clip-rule="evenodd" d="M0 0V47.9994H47.9994V0H0ZM7.9413 4.36325H23.3651H25.0001H40.4239C40.8769 4.36325 41.2419 4.72864 41.2419 5.18154C41.2419 5.63453 40.8769 5.99992 40.4239 5.99992H25.0001V38.0425C25.6751 38.3525 26.1181 39.0165 26.1451 39.7595C28.191 40.1845 28.836 40.5665 29.738 42.4215C29.865 42.6815 29.822 42.7905 30.443 42.4075C31.903 41.5045 32.199 42.4815 33.814 43.9995H33.158C31.744 42.7075 31.841 42.0555 30.176 43.1655C29.793 43.3505 29.569 43.1685 29.414 42.9135C28.459 40.8495 28.05 40.5875 26.0941 40.2745C25.8871 41.1645 25.0951 41.7945 24.1821 41.7965C23.0951 41.7965 22.2151 40.9155 22.2151 39.8295C22.2161 39.0605 22.6651 38.3615 23.3651 38.0425V5.99992H7.9413C7.48881 5.99992 7.12331 5.63453 7.12331 5.18154C7.12331 4.72864 7.48881 4.36325 7.9417 4.36325H7.9413ZM24.1911 39.0958C23.9919 39.0956 23.8009 39.1745 23.6599 39.3152C23.5189 39.4558 23.4395 39.6467 23.4391 39.8458C23.439 39.9446 23.4584 40.0424 23.4962 40.1337C23.5339 40.225 23.5893 40.3079 23.6592 40.3777C23.729 40.4476 23.8119 40.503 23.9032 40.5407C23.9945 40.5785 24.0923 40.5979 24.1911 40.5978C24.339 40.5976 24.4836 40.5538 24.6067 40.4718C24.7298 40.3897 24.8259 40.2732 24.8831 40.1368H24.4161C24.2741 40.1368 24.1581 40.0208 24.1581 39.8788C24.1581 39.7368 24.2741 39.6228 24.4161 39.6228H24.9061C24.8584 39.4704 24.7634 39.3371 24.6348 39.2423C24.5062 39.1476 24.3508 39.0962 24.1911 39.0958Z" fill="#333333"/>
</svg>

<?xml version="1.0" encoding="UTF-8" standalone="no"?>
<!-- Created with Inkscape (http://www.inkscape.org/) -->
<svg id="svg8" xmlns:rdf="http://www.w3.org/1999/02/22-rdf-syntax-ns#" xmlns="http://www.w3.org/2000/svg" xmlns:osb="http://www.openswatchbook.org/uri/2009/osb" height="48" width="48" version="1.1" xmlns:cc="http://creativecommons.org/ns#" viewBox="0 0 12.7 12.7" xmlns:dc="http://purl.org/dc/elements/1.1/">
 <title id="title4753">UIO-icon</title>
 <metadata id="metadata5">
  <rdf:RDF>
   <cc:Work rdf:about="">
    <dc:format>image/svg+xml</dc:format>
    <dc:type rdf:resource="http://purl.org/dc/dcmitype/StillImage"/>
    <dc:title>UIO-icon</dc:title>
    <dc:creator>
     <cc:Agent>
      <dc:title>Joaquín Urbano</dc:title>
     </cc:Agent>
    </dc:creator>
    <dc:rights>
     <cc:Agent>
      <dc:title>GPL</dc:title>
     </cc:Agent>
    </dc:rights>
   </cc:Work>
  </rdf:RDF>
 </metadata>
 <g id="layer1" fill="#333" transform="translate(0,-284.3)">
  <path id="rect894" d="m0 0v48h48v-48h-48zm7.9414 4.3633h15.424 1.635 15.424c0.453 0 0.818 0.3654 0.818 0.8183 0 0.453-0.365 0.8184-0.818 0.8184h-15.424v32.043c0.675 0.31 1.118 0.974 1.145 1.717 2.046 0.425 2.691 0.807 3.593 2.662 0.127 0.26 0.084 0.369 0.705-0.014 1.46-0.903 1.756 0.074 3.371 1.592h-0.656c-1.414-1.292-1.317-1.944-2.982-0.834-0.383 0.185-0.607 0.003-0.762-0.252-0.955-2.064-1.364-2.326-3.32-2.639-0.207 0.89-0.999 1.52-1.912 1.522-1.087 0-1.967-0.881-1.967-1.967 0.001-0.769 0.45-1.468 1.15-1.787v-32.043h-15.424c-0.4525 0-0.818-0.3654-0.818-0.8184 0-0.4529 0.3655-0.8183 0.8184-0.8183zm16.25 34.733a0.7513 0.7513 0 0 0 -0.752 0.75 0.7513 0.7513 0 0 0 0.752 0.752 0.7513 0.7513 0 0 0 0.692 -0.461h-0.467c-0.142 0-0.258-0.116-0.258-0.258s0.116-0.256 0.258-0.256h0.49a0.7513 0.7513 0 0 0 -0.715 -0.527z" fill-rule="evenodd" transform="matrix(.26458 0 0 .26458 0 284.3)"/>
 </g>
</svg>
